X:1
T: Miss Susan Inglis
C:Muriel A Johnstone
R:Strathspey
%Q: 128
K:Bb
M:4/4
L:1/16
|:f2|b3f dB3 a3B g3B|f3d B3F ((3GAB) F3D|E3G ce3 ((3DFB) ((3dfb) |gfed edcB Ac3 c2f2|
b3f dB3 a3B g3B|f3d B3F ((3GAB) F3D|E3G ce3 F3B d2f2|b3g f3e dB3 B2d2|
b3f BG3 gb3 a3g|f3c AF3 fa3 b3a|g3d BG3 f3A e3A|d3B A3G ^FA3 A2d2|
g3d BG3 f3A e3A|d3B F3D ((3EFG) F3D|E3G ce3 F3B df3|b3g f3e dB3 B2:|
